app/images/social__icon--instagram.svg

<svg xmlns="http://www.w3.org/2000/svg" viewBox="0 0 52 52" enable-background="new 0 0 52 52"><path d="M26 4.7c6.9 0 7.8 0 10.5.2 2.5.1 3.9.5 4.8.8 1.2.5 2.1 1 3 1.9.9.9 1.5 1.8 1.9 3 .4.9.8 2.3.9 4.8.1 2.7.2 3.6.2 10.5s0 7.8-.2 10.5c-.1 2.5-.5 3.9-.9 4.8-.5 1.2-1 2.1-1.9 3-.9.9-1.8 1.5-3 1.9-.9.4-2.3.8-4.8.9-2.7.1-3.6.2-10.5.2s-7.8 0-10.5-.2c-2.5-.1-3.9-.5-4.8-.9-1.2-.5-2.1-1-3-1.9s-1.5-1.8-1.9-3c-.4-.8-.8-2.2-1-4.7-.1-2.7-.1-3.6-.1-10.5s0-7.8.2-10.5c.1-2.5.5-3.9.8-4.8.5-1.2 1-2.1 1.9-3s1.8-1.5 3-1.9c1-.4 2.4-.8 4.9-1 2.7-.1 3.6-.1 10.5-.1m0-4.7c-7.1 0-7.9 0-10.7.2-2.8.1-4.7.5-6.3 1.2-1.7.6-3.2 1.5-4.6 3s-2.4 2.9-3 4.6c-.6 1.7-1.1 3.5-1.2 6.3-.2 2.8-.2 3.6-.2 10.7s0 7.9.2 10.7c.1 2.8.6 4.7 1.2 6.3.7 1.7 1.6 3.2 3 4.6 1.4 1.4 2.9 2.3 4.6 3 1.7.6 3.5 1.1 6.3 1.2 2.8.2 3.6.2 10.7.2s7.9 0 10.7-.2c2.8-.1 4.7-.6 6.3-1.2 1.7-.7 3.2-1.6 4.6-3 1.4-1.4 2.3-2.9 3-4.6.6-1.7 1.1-3.5 1.2-6.3.2-2.8.2-3.6.2-10.7s0-7.9-.2-10.7c-.1-2.8-.6-4.7-1.2-6.3-.7-1.7-1.6-3.2-3-4.6s-2.9-2.4-4.6-3c-1.7-.6-3.5-1.1-6.3-1.2-2.8-.2-3.6-.2-10.7-.2zm0 12.6c-7.4 0-13.4 6-13.4 13.4s6 13.4 13.4 13.4 13.4-6 13.4-13.4-6-13.4-13.4-13.4zm0 22.1c-4.8 0-8.7-3.9-8.7-8.7s3.9-8.7 8.7-8.7 8.7 3.9 8.7 8.7-3.9 8.7-8.7 8.7zm17-22.6c0 1.7-1.4 3.1-3.1 3.1s-3.1-1.4-3.1-3.1 1.4-3.1 3.1-3.1 3.1 1.4 3.1 3.1z" fill="#fff"/></svg>

<?xml version="1.0" encoding="utf-8"?>
<!-- Generator: Adobe Illustrator 23.0.6, SVG Export Plug-In . SVG Version: 6.00 Build 0)  -->
<svg version="1.1" id="Layer_1" xmlns="http://www.w3.org/2000/svg" xmlns:xlink="http://www.w3.org/1999/xlink" x="0px" y="0px"
	 viewBox="0 0 52 52" style="enable-background:new 0 0 52 52;" xml:space="preserve">
<g>
	<path style="fill:#FFFFFF;" d="M26,4.7c6.9,0,7.8,0,10.5,0.2C39,5,40.4,5.4,41.3,5.7c1.2,0.5,2.1,1,3,1.9c0.9,0.9,1.5,1.8,1.9,3
		c0.4,0.9,0.8,2.3,0.9,4.8c0.1,2.7,0.2,3.6,0.2,10.5s0,7.8-0.2,10.5c-0.1,2.5-0.5,3.9-0.9,4.8c-0.5,1.2-1,2.1-1.9,3
		c-0.9,0.9-1.8,1.5-3,1.9c-0.9,0.4-2.3,0.8-4.8,0.9c-2.7,0.1-3.6,0.2-10.5,0.2s-7.8,0-10.5-0.2c-2.5-0.1-3.9-0.5-4.8-0.9
		c-1.2-0.5-2.1-1-3-1.9s-1.5-1.8-1.9-3C5.4,40.4,5,39,4.8,36.5C4.7,33.8,4.7,32.9,4.7,26s0-7.8,0.2-10.5C5,13,5.4,11.6,5.7,10.7
		c0.5-1.2,1-2.1,1.9-3s1.8-1.5,3-1.9C11.6,5.4,13,5,15.5,4.8C18.2,4.7,19.1,4.7,26,4.7 M26,0c-7.1,0-7.9,0-10.7,0.2
		C12.5,0.3,10.6,0.7,9,1.4C7.3,2,5.8,2.9,4.4,4.4S2,7.3,1.4,9c-0.6,1.7-1.1,3.5-1.2,6.3C0,18.1,0,18.9,0,26s0,7.9,0.2,10.7
		c0.1,2.8,0.6,4.7,1.2,6.3c0.7,1.7,1.6,3.2,3,4.6c1.4,1.4,2.9,2.3,4.6,3c1.7,0.6,3.5,1.1,6.3,1.2C18.1,52,18.9,52,26,52
		s7.9,0,10.7-0.2c2.8-0.1,4.7-0.6,6.3-1.2c1.7-0.7,3.2-1.6,4.6-3c1.4-1.4,2.3-2.9,3-4.6c0.6-1.7,1.1-3.5,1.2-6.3
		C52,33.9,52,33.1,52,26s0-7.9-0.2-10.7c-0.1-2.8-0.6-4.7-1.2-6.3c-0.7-1.7-1.6-3.2-3-4.6S44.7,2,43,1.4c-1.7-0.6-3.5-1.1-6.3-1.2
		C33.9,0,33.1,0,26,0z M26,12.6c-7.4,0-13.4,6-13.4,13.4s6,13.4,13.4,13.4s13.4-6,13.4-13.4S33.4,12.6,26,12.6z M26,34.7
		c-4.8,0-8.7-3.9-8.7-8.7s3.9-8.7,8.7-8.7s8.7,3.9,8.7,8.7S30.8,34.7,26,34.7z M43,12.1c0,1.7-1.4,3.1-3.1,3.1s-3.1-1.4-3.1-3.1
		S38.2,9,39.9,9S43,10.4,43,12.1z"/>
</g>
</svg>
